Newaita/actions/symbolic/call-start-symbolic.svg

<svg height="16" viewBox="0 0 16 16" width="16" xmlns="http://www.w3.org/2000/svg"><g fill="#424242"><path d="m12.398438 2.199219c-.519532-.519531-1.351563-.519531-1.871094 0l-1.402344 1.402343c-.519531.519532-.519531 1.355469 0 1.871094l.46875.46875 3.273438-3.273437zm0 0"/><path d="m5.382812 9.214844c-.519531-.515625-1.351562-.515625-1.871093 0l-1.402344 1.40625c-.519531.515625-.519531 1.351562 0 1.871094l.464844.464843 3.277343-3.273437zm0 0"/><path d="m13.320312 3.148438-3.261718 3.261718c1.40625 1.402344-2.335938 5.144532-3.742188 3.742188l-3.257812 3.257812c3.492187 3.523438 13.785156-6.765625 10.261718-10.261718zm0 0"/></g></svg>

<?xml version="1.0" encoding="UTF-8"?>
<svg xmlns="http://www.w3.org/2000/svg" xmlns:xlink="http://www.w3.org/1999/xlink" width="16px" height="16px" viewBox="0 0 16 16" version="1.1">
<g id="surface1">
<path style=" stroke:none;fill-rule:nonzero;fill:rgb(25.882354%,25.882354%,25.882354%);fill-opacity:1;" d="M 12.398438 2.199219 C 11.878906 1.679688 11.046875 1.679688 10.527344 2.199219 L 9.125 3.601562 C 8.605469 4.121094 8.605469 4.957031 9.125 5.472656 L 9.59375 5.941406 L 12.867188 2.667969 Z M 12.398438 2.199219 "/>
<path style=" stroke:none;fill-rule:nonzero;fill:rgb(25.882354%,25.882354%,25.882354%);fill-opacity:1;" d="M 5.382812 9.214844 C 4.863281 8.699219 4.03125 8.699219 3.511719 9.214844 L 2.109375 10.621094 C 1.589844 11.136719 1.589844 11.972656 2.109375 12.492188 L 2.574219 12.957031 L 5.851562 9.683594 Z M 5.382812 9.214844 "/>
<path style=" stroke:none;fill-rule:nonzero;fill:rgb(25.882354%,25.882354%,25.882354%);fill-opacity:1;" d="M 13.320312 3.148438 L 10.058594 6.410156 C 11.464844 7.8125 7.722656 11.554688 6.316406 10.152344 L 3.058594 13.410156 C 6.550781 16.933594 16.84375 6.644531 13.320312 3.148438 Z M 13.320312 3.148438 "/>
</g>
</svg>
